X:96
T:Maid behind the Bar, The
T:Barmaid, The
T:Green Mountain, The
T:Little Judy
R:reel
D:Stockton's Wing.
Z:id:hn-reel-96
M:C|
K:D
FAAB AFED|FAAB ABde|fBBA Bcde|f2af edBA|
FAAB AFED|FAAB ABde|fBBA BcdB|1 AFEF D2DE:|2 AFEF D3e||
|:faag fede|fdad fd~d2|efga beef|gebe gfeg|
faaf bfaf|defd e2de|fBBA BcdB|1 AFEF D3e:|2 AFEF D2DE||
P:Variations:
|:~A3B AFED|FAAF ABde|fdBA Bcde|f2df efdB|
~A3B AFED|FAAF ABde|fdBA BcdB|1 AFEF D2DE:|2 AFEF D3e||
|:~a3g fdde|f2af fedf|~e3f gfef|gbeg bgeg|
fa~a2 b2af|defd e2de|fdBA BcdB|1 AFEF D3e:|2 AFEF D2DE||

